!!!COM: Anon.
!!!OTL: Toka-Ebisu
!!!OTC: Japanese Popular Music: A Collection of The Popular Music of Japan Rendered in to the Staff notation.
!!!CNT: Nippon, Japanese
!!!TXO: Nippon, Japan
!!!OCY: Nippon, Japan
!!!ODT: <1892///
!!!PSR: S. Miki & Co.
!!!PSP: Osaka, Nippon
!!!PDT: 1892///
!!!PPE: Y Nagai & K. Kobatake
!!!PED: Revised Second Edition
!!!PPG: page 4
!! Allegro
**kern	**silbe
*ICstr	*
*ICvox	*
*Ikoto	*
*Ivox	*
*clefG2	*
*k[b-]	*
*M2/4	*
=1-	=1-
4.d	To
8f	ka
=2	=2
8g	e
8g	bi
8f	su
8g	no
=3	=3
8cc	u-
8a-	-ri
8g	mo
8e	no
=4	=4
4d	wa
8ee-	ha
8ee-	zi
=5	=5
8dd	fu
8cc	ku
8a-	ro
8g	ni
=6	=6
8f	to
8g	ri
8a-	ba
8cc	shi
=7	=7
8.g	ze
16g	ni
8g	ga
8e-	ma
=8	=8
4d	su
8c	|
8d	|
=9	=9
8f	ko
8g	ban
8f	|
8g	ni
=10	=10
8.a-	ka
16cc	ne
8dd	ba
8cc	ko
=11	=11
8g	ta
8ee-	te
8r	e
8ee-	bo
=12	=12
4d 4d	shi
8r	.
=13	=13
8dd	yu
8dd	de
8b-	ha
8b-	su
=14	=14
4a	sai
8a	tou
8g	chi
=15	=15
8r	ta ba
8a	.
8r	ne no
8a	.
=16	=16
8d	shi
8cc	.
8a-	.
8g	.
=17	=17
8f	o
8f	sa
8f	sa
8g	no
=18	=18
8a-	ka
8a-	ta
8g	ge
8cc	te
=19	=19
8ee-	chi
8dd	do
8cc	ri
8a-	a
=20	=20
2g	shi
==	==
*-	*-
!!!ENC: David Huron
!!!RDT: 2000/1/30
!!!EEV: Release 1.0
!!!ELF: 2/28
!!!YER: 2000/2/1
!!!YEM: Copyright David Huron, 2000
!!!YEN: United States of America
